package/converter/svg/light/square-small.svg

<svg xmlns="http://www.w3.org/2000/svg" viewBox="0 0 320 512"><!-- Font Awesome Pro 6.0.0-alpha2 by @fontawesome - https://fontawesome.com License - https://fontawesome.com/license (Commercial License) --><path d="M256 96H64C28.654 96 0 124.654 0 160V352C0 387.346 28.654 416 64 416H256C291.346 416 320 387.346 320 352V160C320 124.654 291.346 96 256 96ZM288 352C288 369.645 273.645 384 256 384H64C46.355 384 32 369.645 32 352V160C32 142.355 46.355 128 64 128H256C273.645 128 288 142.355 288 160V352Z"/></svg>

<svg xmlns="http://www.w3.org/2000/svg" viewBox="0 0 320 512"><!--! Font Awesome Pro 6.6.0 by @fontawesome - https://fontawesome.com License - https://fontawesome.com/license (Commercial License) Copyright 2024 Fonticons, Inc. --><path d="M256 128c17.7 0 32 14.3 32 32l0 192c0 17.7-14.3 32-32 32L64 384c-17.7 0-32-14.3-32-32l0-192c0-17.7 14.3-32 32-32l192 0zM64 96C28.7 96 0 124.7 0 160L0 352c0 35.3 28.7 64 64 64l192 0c35.3 0 64-28.7 64-64l0-192c0-35.3-28.7-64-64-64L64 96z"/></svg>
